X:1
T:O Changeless Word
T:Daniel Brink Towner
T:O Changeless Word
T:Public Domain
T:Public Domain
C:Daniel Brink Towner
Z:Public Domain
%%score ( 1 2 ) ( 3 4 )
L:1/8
M:3/4
K:D
V:1 treble 
V:2 treble 
V:3 bass 
V:4 bass 
V:1
 D2 | [DF][FA] [FA]2 [GB]2 | [FA][DF] [FA]2 [DF]2 | [DB]3 [DA] [CG][DF] | [DF]2 [CE]2 D2 | %5
w: 1.~O|less Word of life|and light, A per-|fect rule to guide|me, I take|
w: 2.~Thou|di- vine, thy pag-|es shine With heav’n’s|un- fad- ing glo-|ry; Thou dost|
w: 3.~Here|and love and wis-|dom stand Re- vealed|through by- gone a-|ges, And child-|
w: 4.~Un-|by time, or men’s|as- saults, This Word|re- mains un- shak-|en, And those|
 [DF][FA] [FA]2 [GB]2 | [FA][DF] [FA]2 [Fd]2 | [Ec]3 [EB] [Ec][EB] | [EB]2 [EA]2 || %9
w: coun- sels, trust thy|truth, And in my|heart I hide thee.||
w: veal to mor- tals|here The great re-|demp- tion sto- ry.|Pre- cious|
w: read a mes- sage|sweet Up- on thy|sim- ple pag- es.||
w: build up- on this|rock Will ne- ver|be for- sak- en.||
"^Refrain" [GA]>[GB] | [FA]2 [DF]2 [Fd]>[Ac] | [Ac]2 [GB]2 [GB]>[GB] | [FA]3 [DF] [DF]D | %13
w: ||||
w: Bi- ble,|pre- cious Bi- ble,|Book by in- spi-|ra- tion giv- en;|
w: ||||
w: ||||
 [DF]2 [CE]2 [DA]>[DB] | [DA]2 [DF]2 [Fd]>[Ac] | [Ac]2 [GB]2 [^Ed]>[Ed] | [Fd]3 [DF] [CF]>[CE] | %17
w: ||||
w: cious Bi- ble, pre-|cious Bi- ble, Light|to guide our souls|to Heav’n! * *|
w: ||||
w: ||||
 D4 |] %18
w: |
w: |
w: |
w: |
V:2
 D2 | x6 | x6 | x6 | x4 D2 | x6 | x6 | x6 | x4 || x2 | x6 | x6 | x5 D | x6 | x6 | x6 | x6 | D4 |] %18
w: change-||||thy||||||||||||||
w: Book||||re-||||||||Pre-||||||
w: law||||ren||||||||||||||
w: touched||||who||||||||||||||
V:3
 [D,F,]2 | [D,B,][D,D] [D,D]2 [D,D]2 | [D,D][D,A,] [D,D]2 [D,D]2 | [G,D]3 [F,D] [E,A,][D,A,] | %4
 [A,,A,]2 [A,,A,]2 [D,F,]2 | [D,A,][D,D] [D,D]2 [D,D]2 | [D,D][D,A,] [D,D]2 [D,A,]2 | %7
 [E,A,]3 [E,^G,] [E,A,][E,D] | [A,,D]2 [A,,C]2 || [A,C]>[A,C] | [D,D]2 [D,A,]2 [D,A,]>[F,D] | %11
 [G,D]2 [G,D]2 [G,D]>[G,D] | [D,D]3 [D,A,] [D,A,][F,A,] | A,2 A,2 [D,F,]>[D,G,] | %14
 [D,F,]2 [D,A,]2 [D,A,]>[F,D] | [G,D]2 [G,D]2 [^G,B,]>[G,B,] | A,3 A, [A,,A,]>[A,,G,] | [D,F,]4 |] %18
V:4
 x2 | x6 | x6 | x6 | x6 | x6 | x6 | x6 | x4 || x2 | x6 | x6 | x6 | A,2 A,2 x2 | x6 | x6 | %16
 A,3 A, x2 | x4 |] %18

